resources/svg/polaroid-fill.svg

<svg fill="currentColor" viewBox="0 0 24 24" xmlns="http://www.w3.org/2000/svg"><path d="M20.6586 10C19.8349 7.66962 17.6124 6 15 6C11.6863 6 9 8.68629 9 12C9 15.3137 11.6863 18 15 18C17.6124 18 19.8349 16.3304 20.6586 14H21V20C21 20.5523 20.5523 21 20 21H4C3.44772 21 3 20.5523 3 20V4C3 3.44772 3.44772 3 4 3H20C20.5523 3 21 3.44772 21 4V10H20.6586ZM5 6V9H7V6H5ZM15 16C12.7909 16 11 14.2091 11 12C11 9.79086 12.7909 8 15 8C17.2091 8 19 9.79086 19 12C19 14.2091 17.2091 16 15 16ZM15 14C16.1046 14 17 13.1046 17 12C17 10.8954 16.1046 10 15 10C13.8954 10 13 10.8954 13 12C13 13.1046 13.8954 14 15 14Z"/></svg>

<svg xmlns="http://www.w3.org/2000/svg" viewBox="0 0 24 24" fill="currentColor">
    <g>
        <path fill="none" d="M0 0h24v24H0z"/>
        <path d="M20.659 10a6 6 0 1 0 0 4H21v6a1 1 0 0 1-1 1H4a1 1 0 0 1-1-1V4a1 1 0 0 1 1-1h16a1 1 0 0 1 1 1v6h-.341zM5 6v3h2V6H5zm10 10a4 4 0 1 1 0-8 4 4 0 0 1 0 8zm0-2a2 2 0 1 0 0-4 2 2 0 0 0 0 4z"/>
    </g>
</svg>
